X:1
T:Title
%%score ( 1 2 ) ( 3 4 )
L:1/8
Q:1/4=105
M:6/8
K:G
V:1 treble nm="Grand Piano, Soprano"
V:2 treble 
V:3 bass nm="Choir Pad, Arnos Grove, 10.10.11.11"
V:4 bass 
V:1
 [Gd] d2 ^c [Gd]2 | [Ge] d2- d B2 | D [DG]2 [FA] [GB]2 | [Ge] e2- e D2 | [DF] [DG]2 [FA] [GB]2 | %5
w: By~W.~D.~Styer,~1888 * * *|||||
 [G^c] [Fd]2- [Fd] [GB]2 | [GB] [FA]2 [EG] [DF]2 | [^CE] D2- D2- D/ z/ | D c2 A [DF]2 | %9
w: ||||
 [FA] G2- G/ z/ [DB]2 | [DG] e2 d [Fc]2 | [FA] [GB]2- [GB]2- [GB]/ z/ | [Gd] d2 ^c [Gd]2 | %13
w: ||||
 [Ge] [Gd]2- [Gd] [GB]2 | G [GB]2 [Ac] [FB]2 | [FA] G2- G3- | G3 z3 |] %17
w: ||||
V:2
 z G2- G/ z/ z z | z G2- G3 | x6 | z F2- F2- F/ z/ | x6 | x6 | x6 | x6 | z F2- F/ z/ z z | x6 | %10
 z F2- F/ z/ z z | x6 | z G2- G/ z/ z z | x6 | x6 | x6 | x6 |] %17
V:3
 [G,B,] B,2 _B, [G,=B,]2 | [G,C] B,2- B, D2 | [G,B,] B,2 C [G,D]2 | %3
 [G,B,] [A,C]2- [A,C]2- [A,C]/ z/ | [A,C] B,2 [A,D] [G,D]2 | [E,A,] [D,D]2- [D,D] [G,D]2 | %6
 [G,D] A,2- A,/ z/ [A,,A,]2 | [A,,G,] [D,F,]2- [D,F,]2- [D,F,]/ z/ | z A,2 z3 | %9
 [D,D] [G,B,]2- [G,B,] G,2 | z C2 z3 | [D,D] [G,D]2- [G,D]2- [G,D]/ z/ | z B,2 z3 | %13
 [G,C] [G,B,]2- [G,B,] [G,D]2 | [E,^C] [D,D]2- [D,D] [D,D]2 | [D,C] [G,B,]2- [G,B,]3- | %16
 [G,B,]3 z3 |] %17
V:4
 z G,2- G,/ z/ z z | z G,2- G,3 | z G,2- G,/ z/ z z | x6 | x6 | x6 | x6 | x6 | %8
 [D,F,] D,2- [D,C-]/C/ [D,A,]2 | x6 | [G,B,] D,2- [D,A,-]/A,/ [D,D]2 | x6 | %12
 [G,B,] G,2- [G,_B,-]/B,/ [G,=B,]2 | x6 | x6 | x6 | x6 |] %17

